core/ocio/basic/config.ocio
ocio_profile_version: 1

search_path: luts:looks
strictparsing: true
# Rec.709 luminance coefficients
luma: [0.21263901,  0.71516868,  0.07219232]
environment: {}

roles:
  color_picking: sRGB
  color_timing: Cineon
  compositing_linear: linear
  compositing_log: Cineon
  data: raw
  default: raw
  matte_paint: sRGB
  reference: linear
  scene_linear: linear
  texture_paint: sRGB
  # additional RenderMan roles
  rendering: linear
  srgb_linear: linear
  srgb_texture: sRGB

displays:
  default:
    - !<View> {name: None, colorspace: raw}
    - !<View> {name: sRGB, colorspace: sRGB}
    - !<View> {name: rec709, colorspace: rec709}

active_displays: [default]
active_views: [sRGB, rec709]

colorspaces:
  - !<ColorSpace>
    name: linear
    family: ""
    equalitygroup: ""
    bitdepth: 32f
    description: |
      Scene-linear, high dynamic range. Used for rendering and compositing.
    isdata: false
    allocation: lg2
    allocationvars: [-15, 6]

  - !<ColorSpace>
    name: sRGB
    family: ""
    equalitygroup: ""
    bitdepth: 32f
    description: |
      Standard RGB Display Space
    isdata: false
    allocation: uniform
    allocationvars: [-0.125, 1.125]
    to_reference: !<FileTransform> {src: srgb.spi1d, interpolation: linear}

  - !<ColorSpace>
    name: sRGBf
    family: ""
    equalitygroup: ""
    bitdepth: 32f
    description: |
      Standard RGB Display Space, but with additional range to preserve float highlights.
    isdata: false
    allocation: uniform
    allocationvars: [-0.125, 4.875]
    to_reference: !<FileTransform> {src: srgbf.spi1d, interpolation: linear}

  - !<ColorSpace>
    name: rec709
    family: ""
    equalitygroup: ""
    bitdepth: 32f
    description: |
      Rec. 709 (Full Range) Display Space
    isdata: false
    allocation: uniform
    allocationvars: [-0.125, 1.125]
    to_reference: !<FileTransform> {src: rec709.spi1d, interpolation: linear}

  - !<ColorSpace>
    name: Cineon
    family: ""
    equalitygroup: ""
    bitdepth: 32f
    description: |
      Cineon (Log Film Scan)
    isdata: false
    allocation: uniform
    allocationvars: [-0.125, 1.125]
    to_reference: !<FileTransform> {src: cineon.spi1d, interpolation: linear}

  - !<ColorSpace>
    name: Gamma1.8
    family: ""
    equalitygroup: ""
    bitdepth: 32f
    description: |
      Emulates a idealized Gamma 1.8 display device.
    isdata: false
    allocation: uniform
    allocationvars: [0, 1]
    to_reference: !<ExponentTransform> {value: [1.8, 1.8, 1.8, 1]}

  - !<ColorSpace>
    name: Gamma2.2
    family: ""
    equalitygroup: ""
    bitdepth: 32f
    description: |
      Emulates a idealized Gamma 2.2 display device.
    isdata: false
    allocation: uniform
    allocationvars: [0, 1]
    to_reference: !<ExponentTransform> {value: [2.2, 2.2, 2.2, 1]}

  - !<ColorSpace>
    name: Panalog
    family: ""
    equalitygroup: ""
    bitdepth: 32f
    description: |
      Sony/Panavision Genesis Log Space
    isdata: false
    allocation: uniform
    allocationvars: [-0.125, 1.125]
    to_reference: !<FileTransform> {src: panalog.spi1d, interpolation: linear}

  - !<ColorSpace>
    name: REDLog
    family: ""
    equalitygroup: ""
    bitdepth: 32f
    description: |
      RED Log Space
    isdata: false
    allocation: uniform
    allocationvars: [-0.125, 1.125]
    to_reference: !<FileTransform> {src: redlog.spi1d, interpolation: linear}

  - !<ColorSpace>
    name: ViperLog
    family: ""
    equalitygroup: ""
    bitdepth: 32f
    description: |
      Viper Log Space
    isdata: false
    allocation: uniform
    allocationvars: [-0.125, 1.125]
    to_reference: !<FileTransform> {src: viperlog.spi1d, interpolation: linear}

  - !<ColorSpace>
    name: AlexaV3LogC
    family: ""
    equalitygroup: ""
    bitdepth: 32f
    description: |
      Alexa Log C
    isdata: false
    allocation: uniform
    allocationvars: [-0.125, 1.125]
    to_reference: !<FileTransform> {src: alexalogc.spi1d, interpolation: linear}

  - !<ColorSpace>
    name: PLogLin
    family: ""
    equalitygroup: ""
    bitdepth: 32f
    description: |
      Josh Pines style pivoted log/lin conversion. 445->0.18
    isdata: false
    allocation: uniform
    allocationvars: [-0.125, 1.125]
    to_reference: !<FileTransform> {src: ploglin.spi1d, interpolation: linear}

  - !<ColorSpace>
    name: SLog
    family: ""
    equalitygroup: ""
    bitdepth: 32f
    description: |
      Sony SLog
    isdata: false
    allocation: uniform
    allocationvars: [-0.125, 1.125]
    to_reference: !<FileTransform> {src: slog.spi1d, interpolation: linear}

  - !<ColorSpace>
    name: raw
    family: ""
    equalitygroup: ""
    bitdepth: 32f
    description: |
      Raw Data. Used for normals, points, etc.
    isdata: true
    allocation: uniform


looks:
  - !<Look>
    name: Greyscale
    process_space: Gamma2.2
    transform: !<MatrixTransform> {matrix: [0.2126729, 0.7151521, 0.0721750, 0, 0.2126729, 0.7151521, 0.0721750, 0, 0.2126729, 0.7151521, 0.0721750, 0, 0, 0, 0, 1]}

  - !<Look>
    name: Heatmap Classic
    process_space: linear
    transform: !<GroupTransform>
        children:
          - !<MatrixTransform> {matrix: [0.2126729, 0.7151521, 0.0721750, 0, 0.2126729, 0.7151521, 0.0721750, 0, 0.2126729, 0.7151521, 0.0721750, 0, 0, 0, 0, 1]}
          - !<FileTransform> {src: heatmap_classic.spi3d, interpolation: best}
          - !<CDLTransform> {power: [2.2, 2.2, 2.2]}

  - !<Look>
    name: Heatmap Fire
    process_space: linear
    transform: !<GroupTransform>
        children:
          - !<MatrixTransform> {matrix: [0.2126729, 0.7151521, 0.0721750, 0, 0.2126729, 0.7151521, 0.0721750, 0, 0.2126729, 0.7151521, 0.0721750, 0, 0, 0, 0, 1]}
          - !<FileTransform> {src: heatmap_fire.spi3d, interpolation: best}
          - !<CDLTransform> {power: [2.2, 2.2, 2.2]}

  - !<Look>
    name: Heatmap Hue
    process_space: linear
    transform: !<GroupTransform>
        children:
          - !<MatrixTransform> {matrix: [0.2126729, 0.7151521, 0.0721750, 0, 0.2126729, 0.7151521, 0.0721750, 0, 0.2126729, 0.7151521, 0.0721750, 0, 0, 0, 0, 1]}
          - !<FileTransform> {src: heatmap_hue.spi3d, interpolation: best}
          - !<CDLTransform> {power: [2.2, 2.2, 2.2]}

  - !<Look>
    name: Heatmap Diverging
    process_space: linear
    transform: !<GroupTransform>
        children:
          - !<MatrixTransform> {matrix: [0.2126729, 0.7151521, 0.0721750, 0, 0.2126729, 0.7151521, 0.0721750, 0, 0.2126729, 0.7151521, 0.0721750, 0, 0, 0, 0, 1]}
          - !<CDLTransform> {offset: [1, 1, 1]}
          - !<CDLTransform> {slope: [0.5, 0.5, 0.5]}
          - !<FileTransform> {src: heatmap_diverging.spi3d, interpolation: best}
          - !<CDLTransform> {power: [2.2, 2.2, 2.2]}
